lib/flags/l/508.svg

<svg xmlns="http://www.w3.org/2000/svg" fill="none" viewBox="0 0 32 24"><mask id="508_svg__a" width="32" height="24" x="0" y="0" mask-type="alpha" maskUnits="userSpaceOnUse"><path fill="#fff" d="M0 0H32V24H0z"/></mask><g mask="url(#508_svg__a)"><path fill="#F7FCFF" fill-rule="evenodd" d="M0 0V24H32V0H0Z" clip-rule="evenodd"/><mask id="508_svg__b" width="32" height="24" x="0" y="0" mask-type="alpha" maskUnits="userSpaceOnUse"><path fill="#fff" fill-rule="evenodd" d="M0 0V24H32V0H0Z" clip-rule="evenodd"/></mask><g mask="url(#508_svg__b)"><path fill="#FECA00" fill-rule="evenodd" d="M0 0V8H32V0H0Z" clip-rule="evenodd"/><path fill="#093" fill-rule="evenodd" d="M0 16V24H32V16H0Z" clip-rule="evenodd"/><path fill="#272727" stroke="#fff" stroke-width="2" d="M0 7H-1V8V16V17H0H32H33V16V8V7H32H0Z"/></g><path fill="#F50100" fill-rule="evenodd" d="M0 0V24L18 12L0 0Z" clip-rule="evenodd"/><mask id="508_svg__c" width="18" height="24" x="0" y="0" mask-type="alpha" maskUnits="userSpaceOnUse"><path fill="#fff" fill-rule="evenodd" d="M0 0V24L18 12L0 0Z" clip-rule="evenodd"/></mask><g mask="url(#508_svg__c)"><path fill="#FECA00" fill-rule="evenodd" d="M8.06878 14.3532L4.28984 17.4037L6.02322 13.3271L3.0448 10.4588H6.56041L8.00299 7L9.53517 10.4588H13.0448L9.90905 13.3271L11.4784 17.4037L8.06878 14.3532Z" clip-rule="evenodd"/><path fill="#F7FCFF" fill-rule="evenodd" d="M6.15592 11.9842L5.51501 14.1246C5.51501 14.1246 7.67865 14.1032 7.93852 14.3218C8.72152 13.8336 10.3335 14.1246 10.3335 14.1246L9.4761 11.8339C9.4761 11.8339 8.38905 11.3413 7.93852 11.6114C6.83423 11.3619 6.15592 11.9842 6.15592 11.9842Z" clip-rule="evenodd"/><path fill="#000" d="M11.5638 15.2162C11.7299 15.4368 11.6857 15.7503 11.4651 15.9164C11.2445 16.0825 10.9311 16.0383 10.7649 15.8177L6.58486 10.2665C6.41875 10.0459 6.46292 9.73241 6.68352 9.5663C6.90411 9.40019 7.2176 9.44436 7.38371 9.66496L11.5638 15.2162Z"/><path stroke="#000" stroke-linecap="round" stroke-linejoin="round" d="M6.97397 9.83974L6.57397 9.35974"/><path fill="#000" fill-rule="evenodd" d="M5.60463 9.36255 4.39612 11.2979 5.00037 12.3446 6.38255 10.2903 6.63116 9.65514 6.38255 9.36255H5.60463zM4.03894 15.1085 4.62156 15.9303 9.11718 10.6112 9.30366 10.8196 10.34 9.84465 11.9961 8.04297 10.34 9.39656 9.80435 9.24805 9.30366 10.0346H8.80137L5.12929 14.1223 4.03894 15.1085z" clip-rule="evenodd"/></g></g></svg>

<svg xmlns="http://www.w3.org/2000/svg" fill="none" viewBox="0 0 32 24"><mask id="508_svg__a" width="32" height="24" x="0" y="0" maskUnits="userSpaceOnUse"><path fill="#fff" d="M0 0h32v24H0z"/></mask><g mask="url(#508_svg__a)"><path fill="#F7FCFF" fill-rule="evenodd" d="M0 0v24h32V0H0z" clip-rule="evenodd"/><mask id="508_svg__b" width="32" height="24" x="0" y="0" maskUnits="userSpaceOnUse"><path fill="#fff" fill-rule="evenodd" d="M0 0v24h32V0H0z" clip-rule="evenodd"/></mask><g mask="url(#508_svg__b)"><path fill="#FECA00" fill-rule="evenodd" d="M0 0v8h32V0H0z" clip-rule="evenodd"/><path fill="#093" fill-rule="evenodd" d="M0 16v8h32v-8H0z" clip-rule="evenodd"/><path fill="#272727" stroke="#fff" stroke-width="2" d="M0 7h-1v10h34V7H0z"/></g><path fill="#F50100" fill-rule="evenodd" d="M0 0v24l18-12L0 0z" clip-rule="evenodd"/><mask id="508_svg__c" width="18" height="24" x="0" y="0" maskUnits="userSpaceOnUse"><path fill="#fff" fill-rule="evenodd" d="M0 0v24l18-12L0 0z" clip-rule="evenodd"/></mask><g mask="url(#508_svg__c)"><path fill="#FECA00" fill-rule="evenodd" d="M8.069 14.353l-3.78 3.05 1.734-4.076-2.978-2.868H6.56L8.003 7l1.532 3.459h3.51l-3.136 2.868 1.57 4.077-3.41-3.05z" clip-rule="evenodd"/><path fill="#F7FCFF" fill-rule="evenodd" d="M6.156 11.984l-.641 2.14s2.164-.02 2.424.198c.783-.488 2.395-.197 2.395-.197l-.858-2.291S8.39 11.34 7.94 11.61c-1.105-.249-1.783.373-1.783.373z" clip-rule="evenodd"/><path fill="#000" d="M11.564 15.216a.5.5 0 01-.8.602l-4.18-5.551a.5.5 0 01.8-.602l4.18 5.551z"/><path stroke="#000" stroke-linecap="round" stroke-linejoin="round" d="M6.974 9.84l-.4-.48"/><path fill="#000" fill-rule="evenodd" d="M5.605 9.363l-1.209 1.935L5 12.345l1.383-2.055.248-.635-.248-.292h-.778zm-1.566 5.745l.583.822 4.495-5.319.187.209 1.036-.975 1.656-1.802-1.656 1.354-.536-.149-.5.787H8.8l-3.67 4.087-1.09.986z" clip-rule="evenodd"/></g></g></svg>
